X: 201
T: Ballad of Bray
M:3/4
R:waltz
L:1/4
Z:Alf Warnock - alf.warnock@rogers.com
K:G
d|"G"B d d|"D7"A B c|"G"B A G -|G2 d|\
w:Well my Gran-ny she lived in old Ireland. **This
"C"g f g|"Am"a g e|"G"d3 -|d2 f|
w:sto-ry I tell you is true. One
"C"g f g|a g e|"G"d B2 -|B2 B|\
w:day she was out in her wheel chair * that
"G"B d/d/ d|"Em"e d B|"D7"A3 -|A2 d/d/|
w:she did-n't know had a loose screw. *Well the
d2 d|A B c|"G"B G2 -|G2 d|\
w: wheel fell off of that wheel chair. * On
"C"g f g|"Am"a g e|"G"d3 -|d2 f|
w:three wheels it just ran a-way. * It
"C"g f g|"Am"a g e|"G"d d B|"Em"G2 A/A/|\
w:kept right on roll-ing right ov-er a cliff. In a
"G"B d d|"D7"A c B|"G"G3 -|G2 "F#"F|
w: sea-side res-ort they call Bray
"G"G3 -|G2 "F#"F|"G"G3 -|G2|]
%%vskip 2cm
%%multicol start
%%textfont Times-Roman 14
%%leftmargin 1cm
%%rightmargin 11.5cm
%%begintext
W:
W:Now the boy who was pushing the wheelchair
W:Was a little blind orphan named Joe
W:He yelled out "Where is my Granny?"
W:"Oh where did my Granny go?"
W:He ran in search of the wheelchair
W:But his sightless eyes led him astray
W:Still asking his question right over that cliff
W:In the seaside resort they call Bray
W:--
W:Then someone sent for the doctor
W:And the ambulance too it was called
W:The people came round from the neighborhood
W:And they all stood around and they bawled
W:The ambulance and the doctor were coming
W:They were coming from two different ways
W:They crashed with a biff and went over the cliff
W:In the seaside resort they call Bray
%%endtext
%%multicol new
%%leftmargin 12cm
%%rightmargin 1cm
%%begintext
W:Father Maloney was called on
W:To pray for those poor souls' repose
W:Put your hands together my friends, I suppose
W:I can always say a rosary
W:But too many people had gathered
W:And the edge of the cliff it gave way
W:They all gave a yell and went straight down to hell
W:In the seaside resort they call Bray
W:--
W:When I'm dead and laid out in my coffin
W:Some day to heaven I'll go
W:I'll go to be with my Granny
W:and that little blind orphan called Joe
W:I won't be surprised if it's crowded
W:There may not be room there at all
W:For the whole of the village was lost on that day
W:At the seaside resort they call Bray
%%endtext
%%multicol end

